packages/ui/assets/svg/cfx.svg

<svg class="icon-size" viewBox="0 0 27 34" fill="none" xmlns="http://www.w3.org/2000/svg">
<path class="fill" d="M20.5073 19.814L13.4124 26.9088L9.46382 22.9602L16.5587 15.8653L13.4034 12.71L3.11865 22.9943L13.375 33.2504L23.6594 22.966L20.5073 19.814Z" fill="#1A1A1A"/>
<path d="M26.8383 13.4006L13.4381 0L0 13.4381L0.0428453 19.7191L13.3811 6.38127L26.8159 19.8167L26.8383 13.4006Z" fill="#38A1DB"/>
</svg>

<svg class="icon-size" viewBox="0 0 27 34" fill="none" xmlns="http://www.w3.org/2000/svg"><path class="fill" d="m20.507 19.814-7.095 7.095-3.948-3.949 7.095-7.095-3.156-3.155L3.12 22.994 13.375 33.25l10.284-10.284-3.152-3.152Z" fill="#1A1A1A"/><path d="M26.838 13.4 13.438 0 0 13.438l.043 6.281L13.38 6.381l13.435 13.436.022-6.416Z" fill="#38A1DB"/></svg>
